svg/file_star_four_points_outline.svg

<svg xmlns="http://www.w3.org/2000/svg" viewBox="0 0 24 24"><path d="m12 11-1.26 2.75L8 15l2.74 1.26L12 19l1.25-2.74L16 15l-2.75-1.25zM6 2h8l6 6v12c0 1.1-.9 2-2 2H6c-1.1 0-2-.9-2-2V4c0-1.1.9-2 2-2m0 2v16h12V9h-5V4z"/></svg>

<svg xmlns="http://www.w3.org/2000/svg" id="mdi-file-star-four-points-outline" viewBox="0 0 24 24"><path d="M12 11L10.74 13.75L8 15L10.74 16.26L12 19L13.25 16.26L16 15L13.25 13.75L12 11M6 2H14L20 8V20C20 21.1 19.1 22 18 22H6C4.9 22 4 21.1 4 20V4C4 2.9 4.9 2 6 2M6 4V20H18V9H13V4H6Z" /></svg>
